X:1
T:Title
%%score ( 1 2 ) 3
L:1/8
Q:1/4=93
M:4/4
K:A
V:1 treble nm="Grand Piano, Soprano"
V:2 treble 
V:3 bass nm="Choir Pad, Bass"
V:1
 [CE]>[CE] [A,C]>[B,D] [CE]2 [CA]>[EG] | [DF]>[FA] [EG]>[DF] [CE]4 | %2
w: By~E.~D.~Beddall * * * * * *||
 [EG]>[EA] [EB]>[Ec] [EB]2 [Ee]>[Ed] | [Ec]>[Ec] [EB]>[^DA] [EB]4 | %4
w: ||
 [CE]>[CE] [A,C]>[B,D] [CE]2 [CA]>[EG] | [DF]>[DF] [FA]>[FA] [Fd]2 [Fd]>[Fd] | %6
w: ||
 [Ec]2 [Ec]2 [DB]2 [DB]2 | [CA]6 cd | [Ae]6 [Af]2 | [Ae]4 [Ec]4 | %10
w: ||||
 [Ec]>[Ec] [Ec]>[Ec] [EB]2 [^DA]2 | [EB]6 [EG]>[DF] | [CE]>[CE] [A,C]>[B,D] [CE]2 [CA]>[EG] | %13
w: |||
 [DF]>[DF] [FA]>[FA] [Fd]2 [Fd]>[Fd] | [Ec]2 [Ec]2 [DB]2 [DB]2 | [CA]8 |] %16
w: |||
V:2
 x8 | x8 | x8 | x8 | x8 | x8 | x8 | z4 z2 A2 | x8 | x8 | x8 | x8 | x8 | x8 | x8 | x8 |] %16
V:3
 [A,,A,]>[A,,A,] [A,,E,]>[A,,E,] [A,,A,]2 [A,,A,]>[C,A,] | [D,A,]>[D,A,] [D,A,]>[D,A,] [A,,A,]4 | %2
 [E,B,]>[E,A,] [E,G,]>[E,A,] [E,G,]2 [G,B,]>[G,B,] | A,>A, [G,B,]>[F,B,] [E,G,]4 | %4
 [A,,A,]>[A,,A,] [A,,E,]>[A,,E,] [A,,A,]2 [A,,A,]>[C,A,] | %5
 [D,A,]>[D,A,] [D,A,]>[D,A,] [D,A,]2 [D,A,]>[D,A,] | [E,A,]2 [E,A,]2 [E,G,]2 [E,G,]2 | %7
 [A,,A,]6 A,B, | [A,C]2 [A,C]2 [A,C]2 [A,D]2 | [A,C]2 [A,C]2 A,2 A,2 | [A,C]2 [A,C]2 A,2 A,2 | %11
 [E,G,]6 [E,B,]>[E,G,] | [A,,A,]>[A,,A,] [A,,E,]>[A,,E,] [A,,A,]2 [A,,A,]>[C,A,] | %13
 [D,A,]>[D,A,] [D,A,]>[D,A,] [D,A,]2 [D,A,]>[D,A,] | [E,A,]2 [E,A,]2 [E,G,]2 [E,G,]2 | [A,,A,]8 |] %16

